build/images/icon/facebook.svg

<svg xmlns="http://www.w3.org/2000/svg"><path d="M5.826.691L4.615.689c-1.36 0-2.239.92-2.239 2.346v1.081H1.158a.193.193 0 00-.19.195v1.568c0 .107.085.194.19.194h1.218v3.954c0 .108.085.195.19.195h1.589c.105 0 .19-.087.19-.195V6.073h1.424c.105 0 .19-.087.19-.194l.001-1.568a.197.197 0 00-.056-.138.19.19 0 00-.135-.057H4.345V3.2c0-.441.103-.665.665-.665h.816a.193.193 0 00.191-.194V.885a.193.193 0 00-.191-.194z"/></svg>

<svg xmlns="http://www.w3.org/2000/svg" viewbox="0 0 7 11">
  <path d="M5.826,0.691 L4.615,0.689 C3.255,0.689 2.376,1.609 2.376,3.035 L2.376,4.116 L1.158,4.116 C1.053,4.116 0.968,4.204 0.968,4.311 L0.968,5.879 C0.968,5.986 1.053,6.073 1.158,6.073 L2.376,6.073 L2.376,10.027 C2.376,10.135 2.461,10.222 2.566,10.222 L4.155,10.222 C4.260,10.222 4.345,10.135 4.345,10.027 L4.345,6.073 L5.769,6.073 C5.874,6.073 5.959,5.986 5.959,5.879 L5.960,4.311 C5.960,4.259 5.940,4.210 5.904,4.173 C5.868,4.137 5.820,4.116 5.769,4.116 L4.345,4.116 L4.345,3.200 C4.345,2.759 4.448,2.535 5.010,2.535 L5.826,2.535 C5.931,2.535 6.017,2.448 6.017,2.341 L6.017,0.885 C6.017,0.778 5.931,0.691 5.826,0.691 Z"/>
</svg>
